svgs/duotone/money-bill-1.svg

<svg xmlns="http://www.w3.org/2000/svg" viewBox="0 0 576 512"><!--! Font Awesome Pro 6.6.0 by @fontawesome - https://fontawesome.com License - https://fontawesome.com/license (Commercial License) Copyright 2024 Fonticons, Inc. --><path class="fa-secondary" style="fill:var(--fa-secondary-color,inherit);opacity:var(--fa-secondary-opacity,.4);" d="M64 192l0 128c35.3 0 64 28.7 64 64l320 0c0-35.3 28.7-64 64-64l0-128c-35.3 0-64-28.7-64-64l-320 0c0 35.3-28.7 64-64 64zm320 64a96 96 0 1 1 -192 0 96 96 0 1 1 192 0z"/><path class="fa-primary" style="fill:var(--fa-primary-color,inherit);opacity:var(--fa-primary-opacity,1);" d="M0 128C0 92.7 28.7 64 64 64l448 0c35.3 0 64 28.7 64 64l0 256c0 35.3-28.7 64-64 64L64 448c-35.3 0-64-28.7-64-64L0 128zm128 0c0 35.3-28.7 64-64 64l0 128c35.3 0 64 28.7 64 64l320 0c0-35.3 28.7-64 64-64l0-128c-35.3 0-64-28.7-64-64l-320 0zm144 60l16 0c11 0 20 9 20 20l0 68 4 0c11 0 20 9 20 20s-9 20-20 20l-24 0-24 0c-11 0-20-9-20-20s9-20 20-20l4 0 0-48.4c-9.1-1.9-16-9.9-16-19.6c0-11 9-20 20-20z"/></svg>

<svg xmlns="http://www.w3.org/2000/svg" viewBox="0 0 576 512"><!--! Font Awesome Pro 6.4.2 by @fontawesome - https://fontawesome.com License - https://fontawesome.com/license (Commercial License) Copyright 2023 Fonticons, Inc. --><path class="fa-primary" style="fill:var(--fa-primary-color,inherit);opacity:var(--fa-primary-opacity,1);" d="M0 128C0 92.7 28.7 64 64 64H512c35.3 0 64 28.7 64 64V384c0 35.3-28.7 64-64 64H64c-35.3 0-64-28.7-64-64V128zm128 0c0 35.3-28.7 64-64 64V320c35.3 0 64 28.7 64 64H448c0-35.3 28.7-64 64-64V192c-35.3 0-64-28.7-64-64H128zm144 60h16c11 0 20 9 20 20v68h4c11 0 20 9 20 20s-9 20-20 20H288 264c-11 0-20-9-20-20s9-20 20-20h4V227.6c-9.1-1.9-16-9.9-16-19.6c0-11 9-20 20-20z"/><path class="fa-secondary" style="fill:var(--fa-secondary-color,inherit);opacity:var(--fa-secondary-opacity,.4);" d="M448 128H128c0 35.3-28.7 64-64 64V320c35.3 0 64 28.7 64 64H448c0-35.3 28.7-64 64-64V192c-35.3 0-64-28.7-64-64zM288 160a96 96 0 1 1 0 192 96 96 0 1 1 0-192z"/></svg>
